X: 8
T: The Wedding Reel
T: MacLeod's Farewell
R: reel
M: 4/4
L: 1/8
K: Dmaj
|:DE|"D"F2BF AFEF|D2DE FABd|"Em"e2fd efdB|"A"ABde dBAG|
     "D"F2BF AFEF|D2DE FABd|"Em"e2fd efdB|"A"ABde "D"d2:|
|:dB|"D"A3f edfd| A3f edfd|"G"ABdA "(Bm)"BdAB|"Em"dBAF "A"E2DE|
"D"F2BF AFEF|D2DE FABd|"Em"e2fd efdB|"A"ABde "D"d2:|

